X:5687
T:Gan Ainm
R:Reel
C:
S:Declan Corey (Mandola)
H:
N:Kevin Burke 'Up Close; Aidan Coffey, Seamus Creagh
D:Milltown Session 
Z:Adrian Scahill
M:4/4
L:1/8
K:A
e3f ecAB|c2Ac BAFA|ceef ecAB|cBBA B3d|\
cAce f2ec|efec (3BcB AB|c2cA BAFD|EAAG A4:||\
cee2 dffd|efec (3BcB AB|cee2 defg|afec B2AB|\
cee2 dffd|efec (3BcB AB|c2cA BAFA|EAAG A4:||


